X:18012
T:Rosie Finn's Favourite
R:Slide
C:Trad.
O:Ireland
M:6/8
L:1/8
Q:1/8=220
K:G
"G"G2B d2g|b2g d2B|"C"cBc agf|"G"gfe "D"dBA|
"G"G2B d2g|b2g d2B|"C"cBc agf|"G"g3 g2d:|
|:"G"g2b c'2b|"Am"a2e e2g|"D"f2a abg|f2d d2f|
"G"g2b c'2b|"Am"a2e a2g|"D"faf def|"G"g3 g2d:|

